assets/images/icons/src/map-marker.svg

<?xml version="1.0" encoding="utf-8"?>
<!-- Generated by IcoMoon.io -->
<!DOCTYPE svg PUBLIC "-//W3C//DTD SVG 1.1//EN" "http://www.w3.org/Graphics/SVG/1.1/DTD/svg11.dtd">
<svg version="1.1" xmlns="http://www.w3.org/2000/svg" xmlns:xlink="http://www.w3.org/1999/xlink" width="8" height="14" viewBox="0 0 8 14">
<path fill="#444444" d="M6 5q0-0.828-0.586-1.414t-1.414-0.586-1.414 0.586-0.586 1.414 0.586 1.414 1.414 0.586 1.414-0.586 0.586-1.414zM8 5q0 0.852-0.258 1.398l-2.844 6.047q-0.125 0.258-0.371 0.406t-0.527 0.148-0.527-0.148-0.363-0.406l-2.852-6.047q-0.258-0.547-0.258-1.398 0-1.656 1.172-2.828t2.828-1.172 2.828 1.172 1.172 2.828z"></path>
</svg>

<svg xmlns="http://www.w3.org/2000/svg" width="8" height="14" viewBox="0 0 8 14"><path fill="#444" d="M6 5q0-.828-.586-1.414T4 3t-1.414.586T2 5t.586 1.414T4 7t1.414-.586T6 5zm2 0q0 .852-.258 1.398l-2.844 6.047q-.125.258-.371.406T4 12.999t-.527-.148-.363-.406L.258 6.398Q0 5.851 0 5q0-1.656 1.172-2.828T4 1t2.828 1.172T8 5z"/></svg>
